assets/icons/task/list-filled.svg

<?xml version="1.0" encoding="UTF-8" standalone="no"?>
<svg
   viewBox="0 0 24 24"
   height="24"
   width="24"
   version="1.1"
   id="svg4"
   sodipodi:docname="list-filled.svg"
   inkscape:version="1.2 (1:1.2.1+202207142221+cd75a1ee6d)"
   xmlns:inkscape="http://www.inkscape.org/namespaces/inkscape"
   xmlns:sodipodi="http://sodipodi.sourceforge.net/DTD/sodipodi-0.dtd"
   xmlns="http://www.w3.org/2000/svg"
   xmlns:svg="http://www.w3.org/2000/svg">
  <defs
     id="defs8" />
  <sodipodi:namedview
     id="namedview6"
     pagecolor="#ffffff"
     bordercolor="#666666"
     borderopacity="1.0"
     inkscape:pageshadow="2"
     inkscape:pageopacity="0.0"
     inkscape:pagecheckerboard="0"
     showgrid="true"
     inkscape:snap-page="true"
     inkscape:zoom="28"
     inkscape:cx="10.785714"
     inkscape:cy="12.607143"
     inkscape:window-width="1920"
     inkscape:window-height="1043"
     inkscape:window-x="0"
     inkscape:window-y="0"
     inkscape:window-maximized="1"
     inkscape:current-layer="svg4"
     inkscape:showpageshadow="2"
     inkscape:deskcolor="#d1d1d1">
    <inkscape:grid
       type="xygrid"
       id="grid821" />
    <inkscape:grid
       type="xygrid"
       id="grid823"
       dotted="true"
       spacingx="0.5"
       spacingy="0.5"
       empspacing="10" />
  </sodipodi:namedview>
  <path
     id="rect896"
     style="fill:#808080;fill-opacity:1;fill-rule:evenodd;stroke-width:0.5;stroke-linecap:round"
     d="M 11.5 2 C 10.11929 2 9 3.1192909 9 4.5 C 9.00266 4.6682132 9.0222888 4.8357298 9.0585938 5 L 8.5 5 C 7.0000075 5 5.9439465 4.949257 5.1171875 5.4453125 C 4.703808 5.6933404 4.3972492 6.101222 4.2285156 6.6074219 C 4.0597825 7.1136218 4 7.7222262 4 8.5 L 4 17.5 C 4 18.277773 4.0597824 18.88638 4.2285156 19.392578 C 4.3972492 19.89878 4.703808 20.306659 5.1171875 20.554688 C 5.8450445 20.991401 6.7702502 21.00316 8 21 L 15 21 C 16.229749 21.0032 17.154957 20.991398 17.882812 20.554688 C 18.296193 20.306659 18.602754 19.89878 18.771484 19.392578 C 18.94022 18.886381 19 18.277772 19 17.5 L 19 9 L 19 8.5 C 19 7.7222262 18.94022 7.1136218 18.771484 6.6074219 C 18.602754 6.101222 18.296194 5.6933404 17.882812 5.4453125 C 17.056055 4.9492572 15.999994 5 14.5 5 L 13.941406 5 C 13.977706 4.8357298 13.99735 4.6682132 14 4.5 C 14 3.1192909 12.88071 2 11.5 2 z M 11.5 3 C 12.328425 3 13 3.6715745 13 4.5 C 13 5.3284255 12.328425 6 11.5 6 C 10.671575 6 10 5.3284255 10 4.5 C 10 3.6715745 10.671575 3 11.5 3 z M 7 9 L 16 9 L 16 10 L 7 10 L 7 9 z M 7 11 L 16 11 L 16 12 L 7 12 L 7 11 z M 7 13 L 16 13 L 16 14 L 7 14 L 7 13 z M 7 15 L 12 15 L 12 16 L 7 16 L 7 15 z " />
</svg>

<svg height="24" width="24" xmlns="http://www.w3.org/2000/svg"><path style="fill:gray;fill-opacity:1;stroke-width:.5;stroke-linecap:round" d="M11.5 2A2.5 2.5 0 0 0 9 4.5a2.5 2.5 0 0 0 .059.5H8.5c-1.5 0-2.556-.05-3.383.445-.413.248-.72.656-.888 1.162C4.059 7.114 4 7.722 4 8.5v9c0 .778.06 1.386.229 1.893.168.506.475.914.888 1.162.728.436 1.653.448 2.883.445h7c1.23.003 2.155-.009 2.883-.445.413-.248.72-.656.888-1.162.17-.507.229-1.115.229-1.893v-9c0-.778-.06-1.386-.229-1.893-.168-.506-.475-.914-.888-1.162C17.056 4.95 16 5 14.5 5h-.559A2.5 2.5 0 0 0 14 4.5 2.5 2.5 0 0 0 11.5 2zm0 1a1.5 1.5 0 1 1 0 3 1.5 1.5 0 0 1 0-3zM7 9h9v1H7V9zm0 2h9v1H7v-1zm0 2h9v1H7v-1zm0 2h5v1H7v-1z"/></svg>
